X: 1
M: 3/4
L: 1/8
K: G
|: "G"(G2 B)c BA | G2 e2 d2 | (G2 B)c BA | G2 e2 d2 | "D7"A2 (AB) cd |1 f2 f2 f2 | e2 e2 e2 | "G"d2 d2 d2 :|2 "D7"f4 e2 | (d2 c2) F2 | "G"G4 ||
|: d2 | "G"b4 d2 | g4 B2 | e4 B2 | "D7"d2 cB c2 | D2 (DF) Ac | e2 d^c d2 |1 d2 (de) dc | "G"c2 B2 :|2 "D7"(d2 b2) f2 | "G"g4 |]
